img/nav-hover.svg

<svg fill="none" height="10" viewBox="0 0 195 10" width="195" xmlns="http://www.w3.org/2000/svg"><path d="m1.57143 5c-2.66667-5.333333 4-5.333333 19.99997 0 16 5.3333 22.6667 5.3333 20 0-2.6666-5.333333 4-5.333333 20 0 16 5.3333 22.6667 5.3333 20 0-2.6666-5.333333 4-5.333333 19.9996 0 16 5.3333 22.667 5.3333 20 0-2.666-5.333333 4-5.333333 20 0 16 5.3333 22.667 5.3333 20 0-2.666-5.333333 4-5.333333 20 0 16 5.3333 22.667 5.3333 20 0" stroke="#f4f2e3" stroke-width="2"/></svg>

<svg width="195" height="10" viewBox="0 0 195 10" fill="none" xmlns="http://www.w3.org/2000/svg">
<path class="squiggle" d="M1.57143 5C-1.09524 -0.333333 5.57143 -0.333333 21.5714 5C37.5714 10.3333 44.2381 10.3333 41.5714 5C38.9048 -0.333333 45.5714 -0.333333 61.5714 5C77.5714 10.3333 84.2381 10.3333 81.5714 5C78.9048 -0.333333 85.5714 -0.333333 101.571 5C117.571 10.3333 124.238 10.3333 121.571 5C118.905 -0.333333 125.571 -0.333333 141.571 5C157.571 10.3333 164.238 10.3333 161.571 5C158.905 -0.333333 165.571 -0.333333 181.571 5C197.571 10.3333 204.238 10.3333 201.571 5" stroke="#F4F2E3" stroke-width="2"/>
</svg>
